img/icons/svg/icon__search.svg

<svg width="22" height="22" fill="none" xmlns="http://www.w3.org/2000/svg">
  <path d="M15.7233 13.8365H14.7233L14.3774 13.4906C15.6101 12.0629 16.3522 10.2075 16.3522 8.17612C16.3522 3.66038 12.6918 0 8.17612 0C3.66044 0 0 3.66038 0 8.17612C0 12.6919 3.66038 16.3522 8.17612 16.3522C10.2075 16.3522 12.0629 15.6101 13.4906 14.3837L13.8365 14.7296V15.7233L20.1258 22L22 20.1258L15.7233 13.8365ZM8.17612 13.8365C5.05035 13.8365 2.51574 11.3019 2.51574 8.17612C2.51574 5.05035 5.05035 2.51574 8.17612 2.51574C11.3019 2.51574 13.8365 5.05035 13.8365 8.17612C13.8365 11.3019 11.3019 13.8365 8.17612 13.8365Z" fill="#fff"/>
</svg>

<svg width="22" height="22" fill="none" xmlns="http://www.w3.org/2000/svg"><path d="M15.723 13.836h-1l-.346-.345a8.099 8.099 0 001.975-5.315 8.176 8.176 0 10-8.176 8.176 8.126 8.126 0 005.315-1.968l.345.346v.993L20.127 22 22 20.126l-6.277-6.29zm-7.547 0a5.66 5.66 0 11.001-11.321 5.66 5.66 0 010 11.321z" fill="#fff"/></svg>
